!!!!SEGMENT: pl-cz--iii-896--001-004_anonim--partita-es-finale.krn
!!!cenid: 18xx:2493
!!!COM: Anonim
!!!COM-rismID: pe30004985
!!!CDT:
!!!CNT:
!!!OPR: Partita Es
!!!OTL: Finale
!!!OMV: 004
!!!PDT:
!!!AGN: Secular; Partita
!!!YEC: Copyright 2022 Narodowy Instytut Fryderyka Chopina (https://polishscores.org)
!!!YEM: License CC-BY-4.0 (https://creativecommons.org/licenses/by/4.0)
!!!SMS-siglum: PL-CZ
!!!SMS-shelfmark: III-896
!!!SMS-shelfwork: 001-004 M
!!!SMS-variant:
!!!SMS-altvar:
!!!NIFC-rismSourceID: 1001012556
!!!NIFC-rismChildID: 1001012556
!!!NIFC-islandoraID: pl-cz:28148
!!!URL-pdf-islandora: https://repozytorium.nifc.pl/islandora/object/pl-cz%3A28148/datastream/PDF/view
!!!URL-scan: https://polish.musicsources.pl/pl/lokalizacje/galeria/rekopisy/1603 @EN{Scan on Polish Music Sources Website} @PL{Skany w portalu Dziedzictwo Muzyki Polskiej w otwartym dostępie}
!!!IIIF:
!!!ONB-nifc: UWAGA: częsci Partity: 1. Allegro molto, 2. Andante, 3. Menuetto, 4. Finale
!!!AIN: 2 clars 2 cor 2 fagot
!!!key:
**kern	**kern	**kern	**dynam	**kern	**kern	**kern
*part6	*part5	*part4	*	*part3	*part2	*part1
*staff6	*staff5	*staff4	*	*staff3	*staff2	*staff1
*Icor	*Icor	*Ifagot	*	*Ifagot	*Iclars	*Iclars
*I"Corno Secondo in Dis	*I"Corno Primo in Dis	*I"Fagotto Secondo	*	*I"Fagotto Primo	*I"Clarinetto Secondo	*I"Clarinetto Primo
*I'cor 2	*I'cor 1	*I'fag 2	*	*I'fag 1	*I'cl 2	*I'cl 1
*clefG2	*clefG2	*clefF4	*	*clefF4	*clefG2	*clefG2
*ITrd5c9	*ITrd5c9	*	*	*	*ITrd1c2	*ITrd1c2
*k[b-e-a-]	*k[b-e-a-]	*k[b-e-a-]	*	*k[b-e-a-]	*k[b-e-a-]	*k[b-e-a-]
*E-:	*E-:	*E-:	*	*E-:	*E-:	*E-:
*M3/8	*M3/8	*M3/8	*	*M3/8	*M3/8	*M3/8
*<[A,A,B,B,C,C,D,D,A,A,B,B]	*<[A,A,B,B,C,C,D,D,A,A,B,B]	*<[A,A,B,B,C,C,D,D,A,A,B,B]	*	*<[A,A,B,B,C,C,D,D,A,A,B,B]	*<[A,A,B,B,C,C,D,D,A,A,B,B]	*<[A,A,B,B,C,C,D,D,A,A,B,B]
*>A	*>A	*>A	*	*>A	*>A	*>A
!LO:TX:a:i:t=/&colon; Finale allo &colon;/	!LO:TX:a:i:t=/&colon; Finale allo &colon;/	!LO:TX:a:i:t=/&colon; Finale allo &colon;/	!	!LO:TX:a:i:t=/&colon; Finale allo &colon;/	!LO:TX:a:i:t=/&colon; Finale allo &colon;/	!LO:TX:a:i:t=/&colon; Finale allo &colon;/
8r	8r	8r	.	8r	8g/	8b-\
=1	=1	=1	=1	=1	=1	=1
!	!	!	!LO:DY:b:rj	!	!	!
8r	8r	8EE-/L	f	8E-\L	8b-/L	(>8b-\L
8G/L	8e-\L	8GG/	.	8G\	8g/	8ee-\)
8G/J	8e-\J	8EE-/J	.	8E-\J	8g/J	8ee-\J|
=2	=2	=2	=2	=2	=2	=2
!	!	!	!	!LO:TX:t=P:problem=mixed beam	!	!
8r	8r	8BB-/L	.	8B-\L	8a-/L	(>8dd\L
8B-/L	8f\L	8BB-/J	.	8BB-/J	8f/	8aa-\)
8B-/J	8f\J	8r	.	8r	8f/J	8aa-'\J
=3	=3	=3	=3	=3	=3	=3
!	!	!LO:TX:t=P:problem=mixed beam	!	!	!	!
8g\L	8b-\L	8EE-/L	.	8E-\L	4a-/	16aa-\LL
.	.	.	.	.	.	16gg\
8f\	8a-\	8G\	.	8G\	.	16ff\
.	.	.	.	.	.	16ee-\
8e-\J	8g\J	8A-\J	.	8A-\J	8g/	16dd\
.	.	.	.	.	.	16ee-\JJ
=4	=4	=4	=4	=4	=4	=4
4B-/	4f\	8B-\L	.	8B-\L	4f/	4ff\
.	.	8F\	.	8F\	.	.
.	.	.	.	.	.	16qqcc/
8r	8r	8BB-\J	.	8BB-\J	8b-\	8b-\
!LO:LB:g=original	!	!	!	!	!LO:LB:g=original	!LO:LB:g=original
!	!	!LO:LB:g=original	!	!LO:LB:g=original	!	!
=5	=5	=5	=5	=5	=5	=5
!	!	!LO:TX:t=P:problem=mixed beam	!	!	!	!
8r	8r	8E-\L	.	8E-\L	8b-\L	8b-\L
8G/L	8e-\L	8GG/	.	8G\	8g\	8ee-\
8G/J	8e-\J	8E-\J	.	8E-\J	8g\J	8ee-\J
!	!LO:LB:g=original	!	!	!	!	!
=6	=6	=6	=6	=6	=6	=6
!	!	!LO:TX:t=P:problem=mixed beam	!	!LO:TX:t=P:problem=mixed beam	!	!
8r	8r	8B-\L	.	8B-\L	8a-/L	8dd\L
8B-/L	8f\L	8BB-/J	.	8BB-/J	8f/	8aa-\
8B-/J	8f\J	8r	.	8r	8f/J	8aa-\J
=7	=7	=7	=7	=7	=7	=7
8r	8r	8BB-\L	.	8BB-/L	4a-/	16aa-\LL
.	.	.	.	.	.	16gg\
8B-/L	8f\L	8C\	.	8C/	.	16ff\
.	.	.	.	.	.	16ee-\
8B-/J	8f\J	8D\J	.	8D/J	8f/	16dd\
.	.	.	.	.	.	16ee-\JJ
=8	=8	=8	=8	=8	=8	=8
!LO:N:vis=4	!	!	!	!	!	!
8G/	4e-\	8E-\	.	8E-\	8g/	8ee-\
8r	.	8r	.	8r	8r	8r
=:||:	=:||:	=:||:	=:||:	=:||:	=:||:	=:||:
*>B	*>B	*>B	*	*>B	*>B	*>B
8B-/	8f\	8r	.	8r	8r	8r
=9	=9	=9	=9	=9	=9	=9
!	!	!	!	!	!LO:TX:a:t=4	!LO:TX:a:t=3
8.B-\L	8.f\L	4BB-/	.	4BB-/	1.r	2.r
16e-\K	16g\K	.	.	.	.	.
8f\J	8a-\J	8r	.	8r	.	.
!LO:LB:g=original	!	!	!	!	!	!
!	!	!LO:LB:g=original	!	!LO:LB:g=original	!	!
=10	=10	=10	=10	=10	=10	=10
8.e-\L	8.g\L	4E-\	.	4E-\	.	.
16f\K	16a-\K	.	.	.	.	.
8g\J	8b-\J	8r	.	8r	.	.
!	!LO:LB:g=original	!	!	!	!	!
=11	=11	=11	=11	=11	=11	=11
!	!	!	!	!	!	!LO:N:vis=1
8g\L	8b-\L	4D\	.	4D\	.	4.r
16a-\L	16cc\L	.	.	.	.	.
16g\	16b-\	.	.	.	.	.
16f\	16a-\	8E-\	.	8E-\	.	.
16e-\JJ	16g\JJ	.	.	.	.	.
!	!	!	!	!	!	!LO:LB:g=original
=12	=12	=12	=12	=12	=12	=12
.	16qqg/	.	.	.	.	.
8B-/L	4f\	8BB-/L	.	8BB-/L	.	8r
8BB-/J	.	8BBB-/J	.	8BBB-/J	.	8r
8r	8r	8r	.	8r	.	16gg\LL
.	.	.	.	.	.	16ee-\JJ
!	!	!	!	!	!LO:LB:g=original	!
=13	=13	=13	=13	=13	=13	=13
8r	8r	8BB-\L	.	8BB-\L	8r	16aa-\LL
.	.	.	.	.	.	(>16ff\
8f\L	8a-\L	8D\	.	8D\	8a-/L	16dd\
.	.	.	.	.	.	16b-\
8e-\J	8g\J	8E-\J	.	8E-\J	8g/J	16gg\)
.	.	.	.	.	.	16ee-\JJ
=14	=14	=14	=14	=14	=14	=14
!	!	!	!	!	!	!LO:TX:t=P:problem=brak taktu
8r	8r	8F\L	.	8F\L	8r	4.ryy
8f\L	8a-\L	8BB-\	.	8BB-\	8a-/L	.
8f\J	8g\J	8E-\J	.	8E-\J	8g/J	.
!LO:LB:g=original	!	!	!	!	!	!
!	!	!LO:LB:g=original	!	!LO:LB:g=original	!	!
=15	=15	=15	=15	=15	=15	=15
!	!	!LO:TX:t=P:problem=mixed beam	!	!LO:TX:t=P:problem=mixed beam	!	!
8r	8r	8A-\L	.	8A-\L	4a-/	16aa-\LL
.	.	.	.	.	.	(>16ff\
8BB-/L	8f\L	8BB-/	.	8B-\	.	16dd\
.	.	.	.	.	.	16b-\
8BB-/J	8f\J	8BB-/J	.	8BB-/J	8f/	16a-\)
.	.	.	.	.	.	16b-\JJ
!	!LO:LB:g=original	!	!	!	!	!
=16	=16	=16	=16	=16	=16	=16
!LO:SIC:v:o=4C/	!	!	!	!	!	!
.	.	.	.	.	.	16qqdd/
4c	4e-\	8E-/L	.	8E-/L	4g/	4ee-\
.	.	8BB-/	.	8BB-/	.	.
8ryy	8ryy	8EE-/J	.	8EE-/J	8ryy	8ryy
!	!	!LO:LB:g=original	!	!LO:LB:g=original	!LO:LB:g=original	!LO:LB:g=original
=17:|!	=17:|!	=17:|!	=17:|!	=17:|!	=17:|!	=17:|!
*>C	*>C	*>C	*	*>C	*>C	*>C
*k[b-e-]	*k[b-e-]	*k[b-e-]	*	*k[b-e-]	*k[b-e-]	*k[b-e-]
*M3/8	*M3/8	*M3/8	*	*M3/8	*M3/8	*M3/8
!LO:TX:a:i:t=Trio Tacet //	!LO:TX:a:i:t=// Trio Tacet //	!LO:TX:a:i:t=/&colon; Trio &colon;/	!	!LO:TX:a:i:t=/&colon; Trio &colon;/	!LO:TX:a:i:t=/&colon; Trio &colon;/	!LO:TX:a:i:t=/&colon; Trio &colon;/
!	!	!LO:TX:a:t=P:problem=w źródle kolejność znaków przykluczowych to E- BB-	!	!	!	!
4.ryy	4.ryy	4BB-/	.	4BB-/	8dd\L	(>8ff\L
.	.	.	.	.	8b-\	8dd\)
.	.	8r	.	8r	8b-\J	8dd'\J
=18	=18	=18	=18	=18	=18	=18
4.ryy	4.ryy	4FF/	.	4FF/	8cc\L	(>8ee-\L
.	.	.	.	.	8a\	8cc\)
.	.	8r	.	8r	8a\J	8cc'\J
=19	=19	=19	=19	=19	=19	=19
4.ryy	4.ryy	8BB-/L	.	8BB-/L	8b-\L	(>8dd\L
.	.	8AA/	.	8AA/	8cc\	8ee-\)
.	.	8BB-/J	.	8BB-/J	8b-\J	8dd'\J
=20	=20	=20	=20	=20	=20	=20
!	!	!LO:TX:t=P:problem=mixed beam	!	!	!	!
4.ryy	4.ryy	8F\L	.	8F/L	16a\LL	(>16cc\LL
.	.	.	.	.	16g\	16b-\
.	.	8C\	.	8C/	16a\	16cc\
.	.	.	.	.	16b-\J	16dd\J)
.	.	8FF/J	.	8AA/J	8a\J	8cc'\J
!	!	!	!	!LO:LB:g=original	!LO:LB:g=original	!LO:LB:g=original
=21	=21	=21	=21	=21	=21	=21
4.ryy	4.ryy	4BB-/	.	4BB-\	8dd\L	(>8ff\L
.	.	.	.	.	8b-\	8dd\)
.	.	8r	.	8r	8b-\J	8dd'\J
!	!	!LO:LB:g=original	!	!	!	!
=22	=22	=22	=22	=22	=22	=22
4.ryy	4.ryy	4E-\	.	4E-\	8cc\L	(>8ee-\L
.	.	.	.	.	8b-\	8cc\)
.	.	8r	.	8r	8a\J	8cc'\J
=23	=23	=23	=23	=23	=23	=23
4.ryy	4.ryy	4F\	.	4F\	8d/L	8b-\L
.	.	.	.	.	16f/L	16dd\L
.	.	.	.	.	16e-/	16cc\
.	.	8FF/	.	8FF/	16d/	16b-\
.	.	.	.	.	16c/JJ	16a\JJ
=24	=24	=24	=24	=24	=24	=24
4.ryy	4.ryy	8BB-/L	.	8BB-/L	4d/	4b-\
.	.	8FF/	.	8FF/	.	.
.	.	8BBB-/J	.	8BBB-/J	8r	8r
=25:|!|:	=25:|!|:	=25:|!|:	=25:|!|:	=25:|!|:	=25:|!|:	=25:|!|:
*>D	*>D	*>D	*	*>D	*>D	*>D
4.ryy	4.ryy	16FF/LL	.	16FF/LL	16f\LL	16f\LL
.	.	16GG/	.	16GG/	16g\	(>16g\
.	.	16AA/	.	16AA/	16a\	16a\
.	.	16BB-/	.	16BB-/	16b-\	16b-\
.	.	16C/	.	16C/	16cc\	16cc\)
.	.	16D/JJ	.	16D/JJ	16dd\JJ	16dd\JJ
!	!	!	!	!LO:LB:g=original	!LO:LB:g=original	!LO:LB:g=original
=26	=26	=26	=26	=26	=26	=26
4.ryy	4.ryy	4E-\	.	4E-\	4ee-\	(>8ee-\L
.	.	.	.	.	.	8cc\)
.	.	8r	.	8r	8b-\	8ee-'\J
!	!	!LO:LB:g=original	!	!	!	!
=27	=27	=27	=27	=27	=27	=27
4.ryy	4.ryy	4AA/	.	4AA/	4cc\	(>16ee-\LL
.	.	.	.	.	.	16dd\
.	.	.	.	.	.	16cc\)
.	.	.	.	.	.	16b-\JJ
.	.	8BB-/	.	8BB-/	8dd\	8ff\
=28	=28	=28	=28	=28	=28	=28
!	!	!LO:TX:t=P:problem=mixed beam	!	!LO:TX:t=P:problem=mixed beam	!	!
4.ryy	4.ryy	8F\L	.	8F\L	4cc\	4dd\
.	.	8FF/J	.	8FF/J	.	.
.	.	8r	.	8r	8f/	8f/
=29	=29	=29	=29	=29	=29	=29
4.ryy	4.ryy	16FF/LL	.	16FF/LL	16f\LL	16f\LL
.	.	16GG/	.	(<16GG/	(>16g\	(>16g\
.	.	16AA/	.	16AA/	16a\	16a\
.	.	16BB-/	.	16BB-/	16b-\	16b-\
.	.	16C/	.	16C/	16cc\	16cc\
.	.	16D/JJ	.	16D/JJ)	16dd\JJ)	16dd\JJ)
=30	=30	=30	=30	=30	=30	=30
4.ryy	4.ryy	4E-\	.	4E-\	8cc\L	(>8ee-\L
.	.	.	.	.	8a\	8cc\)
.	.	8r	.	8r	8cc\J	8ee-'\J
!	!	!	!	!LO:LB:g=original	!LO:LB:g=original	!LO:LB:g=original
=31	=31	=31	=31	=31	=31	=31
4.ryy	4.ryy	8F\L	.	8F\L	4b-\	16ee-\LL
.	.	.	.	.	.	16dd\
.	.	8G\	.	8G\	.	16cc\
.	.	.	.	.	.	16b-\
.	.	8An\J	.	8An\J	8f/	16a\
.	.	.	.	.	.	16cc\JJ
!	!	!LO:LB:g=original	!	!	!	!
=32	=32	=32	=32	=32	=32	=32
!	!	!	!	!	!LO:SIC:v:o=4c/:t=lub 4e	!
.	.	.	.	.	.	16qqcc/
4.ryy	4.ryy	8B-\L	.	8B-\L	4c	4b-\
.	.	8F\J	.	8F\J	.	.
.	.	8BB-/	.	8BB-/	8r	8r
!LO:TX:b:i:t=Finale Da Capo	!LO:TX:b:i:t=Finale Da Capo //	!LO:TX:b:i:t=Finale Da Capo	!	!LO:TX:b:i:t=Finale Da Capo	!LO:TX:b:i:t=Finale Da Capo	!LO:TX:b:i:t=Finale Da Capo
==:||	==:||	==:||	==:||	==:||	==:||	==:||
*-	*-	*-	*-	*-	*-	*-
!!!system-decoration: [(s1,s2,s3,s4)][(s5,s6)]
!!!RDF**kern: | = vertical stroke
!!!RDF**kern: > = above
!!!RDF**kern: < = below
!!!EED: Antoni Szymański
!!!EEV: 2021-06-24
!!!ENC: Krzysztof Stępień
!!!END: 2021-06-18
